X:77
T:Morris simple chords 24
M:3/4
L:1/8
K:Em
dc [B2G,2B,2D2] BB | AB [d2G,2B,2D2] BB | AB [c2C,2E,2G,2] eg2 |e [d2G,2B,2D2] BB | AB [c2A,2C2E2] AA |
GA [B2G,2B,2D2] GG2 |B [A2A,2C2E2] BA2 |B [A2D,2F,2A,2C2] dd2 |c [B2G,2B,2D2] BB |
AB [d2G,2B,2D2] BB | AB [c2C,2E,2G,2] eg2 |e [d2G,2B,2D2] BB | AB [c2A,2C2E2] AA |
GA [B2G,2B,2D2] GG2 |F [E2C,2E,2G,2] ed2 |c B2 Bc | [d2G,2B,2D2G,2B,2D2] cB cd |
[e2C,2E,2G,2] fg2a | [b2G,2B,2D2] ag fe | [d2G,2B,2D2] BB cd | [e2C,2E,2G,2] ee cA |
[d2G,2B,2D2] dd BG | [c2A,2C2E2] AB2G | [F2D,2F,2A,2C2] Ad2d | c[B2G,2B,2D2]B BA |
B[d2G,2B,2D2]B BA | B[c2C,2E,2G,2]e g2 | e[d2G,2B,2D2]B BA | B[c2A,2C2E2]A AG |
A[B2G,2B,2D2]G G2 | B[A2A,2C2E2]B A2 | B[A2D,2F,2A,2C2]d d2 | c[B2G,2B,2D2]B BA |
B[d2G,2B,2D2]B BA | B[c2C,2E,2G,2]e g2 | e[d2G,2B,2D2]B BA | B[c2A,2C2E2]A AG |
A[B2G,2B,2D2]G G2 | F[E2C,2E,2G,2]e d2 | cB2B c[d2G,2B,2D2G,2B,2D2] |c Bc d[e2C,2E,2G,2] |
f g2 a[b2G,2B,2D2] |a gf e[d2G,2B,2D2] |B Bc d[e2C,2E,2G,2] |e ec A[d2G,2B,2D2] |
d dB G[c2A,2C2E2] |A B2 G[F2D,2F,2A,2C2] |A d2 dc | [B2G,2B,2D2] BB AB |
[d2G,2B,2D2] BB AB | [c2C,2E,2G,2] eg2e | [d2G,2B,2D2] BB AB | [c2A,2C2E2] AA GA |
[B2G,2B,2D2] GG2B | [A2A,2C2E2] BA2B | [A2D,2F,2A,2C2] dd2c | [B2G,2B,2D2] BB AB |
[d2G,2B,2D2] BB AB | [c2C,2E,2G,2] eg2e | [d2G,2B,2D2] BB AB | [c2A,2C2E2] AA GA |
[B2G,2B,2D2] GG2F | [E2C,2E,2G,2] ed2c | [B2G,2B,2D2] |


